front/public/static/landing/logos/gray/ankorstore.svg

<svg fill="none" height="240" viewBox="0 0 600 240" width="600" xmlns="http://www.w3.org/2000/svg" xmlns:xlink="http://www.w3.org/1999/xlink"><mask id="a" height="68" maskUnits="userSpaceOnUse" width="450" x="75" y="86"><path d="m525 86.6573h-450v66.6847h450z" fill="#fff"/></mask><g fill="#364153" mask="url(#a)"><path d="m75 127.641c0-14.361 8.8046-25.313 22.6793-25.313 3.0017-.158 5.9877.52 8.6297 1.96 2.642 1.441 4.837 3.587 6.341 6.202v-6.888h15.074v47.975h-15.074v-6.888c-1.596 2.572-3.841 4.676-6.506 6.097s-5.656 2.11-8.6702 1.996c-14.2515.172-22.4738-10.711-22.4738-25.141zm38.267 0c0-6.888-3.871-12.57-11.408-12.57-7.5371 0-11.4083 5.269-11.4083 12.57s4.3508 12.639 11.4083 12.639c7.057 0 11.408-5.682 11.408-12.639z"/><path d="m130.258 103.602h15.177v6.888c1.514-2.722 3.777-4.95 6.516-6.415 2.74-1.466 5.842-2.108 8.935-1.85 11.613 0 17.472 6.578 17.472 19.63v29.722h-15.28v-24.659c0-8.059-2.295-11.744-8.428-11.744-6.132 0-9.215 3.995-9.215 11.365v25.038h-15.177z"/><path d="m221.285 127.744c0-14.671 10.277-25.312 26.551-25.312 16.272 0 26.481 10.641 26.481 25.312s-10.277 25.313-26.481 25.313c-16.205 0-26.551-10.676-26.551-25.313zm37.959 0c0-7.266-4.249-12.467-11.408-12.467-7.161 0-11.409 5.304-11.409 12.467 0 7.164 4.18 12.467 11.409 12.467 7.228 0 11.408-5.2 11.408-12.467z"/><path d="m307.754 137.319h15.073c0 3.444 3.187 5.579 7.846 5.579 3.426 0 5.55-1.619 5.55-4.409 0-2.169-1.096-3.444-5.173-4.477l-10.004-2.479c-7.639-1.894-11.99-6.888-11.99-14.051 0-9.092 8.119-15.05 20.555-15.05 13.498 0 21.309 5.269 21.309 14.843h-14.971c0-3.444-2.467-5.201-6.543-5.201-3.426 0-5.448 1.619-5.448 3.892s1.405 3.444 5.276 4.58l10.278 2.79c7.537 1.998 12.093 6.578 12.093 13.776 0 9.953-8.222 15.842-20.932 15.842-13.875.103-22.919-6.268-22.919-15.635z"/><path d="m386.994 139.592v12.156c-3.394.571-6.833.836-10.275.793-7.162 0-17.131-1.584-17.131-17.633v-17.771h-7.537v-12.054h7.537v-14.4642h15.176v14.6362h10.793v11.882h-10.793v14.465c0 6.887 2.877 8.162 6.646 8.162 1.864.069 3.731.011 5.584-.172z"/><path d="m386.719 127.744c0-14.671 10.279-25.312 26.554-25.312 16.271 0 26.478 10.641 26.478 25.312s-10.275 25.313-26.478 25.313c-16.208 0-26.554-10.676-26.554-25.313zm37.961 0c0-7.266-4.249-12.467-11.407-12.467-7.163 0-11.374 5.201-11.374 12.467 0 7.267 4.144 12.467 11.374 12.467 7.226 0 11.407-5.2 11.407-12.467z"/><path d="m441.566 103.706h15.18v9.987c.589-3.075 2.232-5.846 4.639-7.834 2.408-1.987 5.434-3.065 8.55-3.049 1.335-.048 2.674.091 3.975.414v14.257c-1.511-.209-3.034-.313-4.556-.31-8.224 0-12.608 5.373-12.608 16.049v18.528h-15.18z"/><path d="m524.268 131.912h-35.115c.274 6.302 4.455 9.677 11.201 9.677 4.662 0 7.643-1.309 8.91-4.27h14.869c-1.474 9.436-11.1 15.738-23.779 15.738-16.271 0-26.276-9.264-26.276-25.313 0-16.048 10.279-25.312 25.763-25.312 14.868 0 25.008 9.264 25.008 22.798-.045 2.238-.24 4.47-.581 6.682zm-14.561-9.471c.12-1.361-.071-2.732-.555-4.008-.484-1.277-1.249-2.427-2.239-3.365-.986-.937-2.175-1.638-3.469-2.049-1.297-.411-2.67-.522-4.012-.325-1.328-.101-2.659.078-3.911.524-1.257.446-2.404 1.151-3.372 2.068-.963.918-1.732 2.028-2.25 3.259-.513 1.232-.768 2.559-.746 3.896z"/><path clip-rule="evenodd" d="m291.31 114.025c2.307-8.7 8.496-13.162 23.981-10.663-5.571 3.257-7.563 7.252-9.274 10.683-2.404 4.823-4.253 8.534-14.707 7.517v30.187h-15.142v-48.043h15.142z" fill-rule="evenodd"/><path d="m210.972 151.577-15.245-20.664v20.664h-14.903v-64.9186h15.006v37.3666l15.656-20.181h17.78l-18.979 22.66 19.185 25.073z"/></g></svg>

<svg width="600" height="240" viewBox="0 0 600 240" fill="none" xmlns="http://www.w3.org/2000/svg">
<mask id="mask0_1904_3304" style="mask-type:luminance" maskUnits="userSpaceOnUse" x="75" y="86" width="450" height="68">
<path d="M525 86.6573H75V153.342H525V86.6573Z" fill="white"/>
</mask>
<g mask="url(#mask0_1904_3304)">
<path d="M75 127.641C75 113.28 83.8046 102.328 97.6793 102.328C100.681 102.17 103.667 102.848 106.309 104.288C108.951 105.729 111.146 107.875 112.65 110.49V103.602H127.724V151.577H112.65V144.689C111.054 147.261 108.809 149.365 106.144 150.786C103.479 152.207 100.488 152.896 97.4738 152.782C83.2223 152.954 75 142.071 75 127.641ZM113.267 127.641C113.267 120.753 109.396 115.071 101.859 115.071C94.3219 115.071 90.4507 120.34 90.4507 127.641C90.4507 134.942 94.8015 140.28 101.859 140.28C108.916 140.28 113.267 134.598 113.267 127.641Z" fill="#364153"/>
<path d="M130.258 103.602H145.435V110.49C146.949 107.768 149.212 105.54 151.951 104.075C154.691 102.609 157.793 101.967 160.886 102.225C172.499 102.225 178.358 108.803 178.358 121.855V151.577H163.078V126.918C163.078 118.859 160.783 115.174 154.65 115.174C148.518 115.174 145.435 119.169 145.435 126.539V151.577H130.258V103.602Z" fill="#364153"/>
<path d="M221.285 127.744C221.285 113.073 231.562 102.432 247.836 102.432C264.108 102.432 274.317 113.073 274.317 127.744C274.317 142.415 264.04 153.057 247.836 153.057C231.631 153.057 221.285 142.381 221.285 127.744ZM259.244 127.744C259.244 120.478 254.995 115.277 247.836 115.277C240.675 115.277 236.427 120.581 236.427 127.744C236.427 134.908 240.607 140.211 247.836 140.211C255.064 140.211 259.244 135.011 259.244 127.744Z" fill="#364153"/>
<path d="M307.754 137.319H322.827C322.827 140.763 326.014 142.898 330.673 142.898C334.099 142.898 336.223 141.279 336.223 138.489C336.223 136.32 335.127 135.045 331.05 134.012L321.046 131.533C313.407 129.639 309.056 124.645 309.056 117.482C309.056 108.39 317.175 102.432 329.611 102.432C343.109 102.432 350.92 107.701 350.92 117.275H335.949C335.949 113.831 333.482 112.074 329.406 112.074C325.98 112.074 323.958 113.693 323.958 115.966C323.958 118.239 325.363 119.41 329.234 120.546L339.512 123.336C347.049 125.334 351.605 129.914 351.605 137.112C351.605 147.065 343.383 152.954 330.673 152.954C316.798 153.057 307.754 146.686 307.754 137.319Z" fill="#364153"/>
<path d="M386.994 139.592V151.748C383.6 152.319 380.161 152.584 376.719 152.541C369.557 152.541 359.588 150.957 359.588 134.908V117.137H352.051V105.083H359.588V90.6188H374.764V105.255H385.557V117.137H374.764V131.602C374.764 138.489 377.641 139.764 381.41 139.764C383.274 139.833 385.141 139.775 386.994 139.592Z" fill="#364153"/>
<path d="M386.719 127.744C386.719 113.073 396.998 102.432 413.273 102.432C429.544 102.432 439.751 113.073 439.751 127.744C439.751 142.415 429.476 153.057 413.273 153.057C397.065 153.057 386.719 142.381 386.719 127.744ZM424.68 127.744C424.68 120.478 420.431 115.277 413.273 115.277C406.11 115.277 401.899 120.478 401.899 127.744C401.899 135.011 406.043 140.211 413.273 140.211C420.499 140.211 424.68 135.011 424.68 127.744Z" fill="#364153"/>
<path d="M441.566 103.706H456.746V113.693C457.335 110.618 458.978 107.847 461.385 105.859C463.793 103.872 466.819 102.794 469.935 102.81C471.27 102.762 472.609 102.901 473.91 103.224V117.481C472.399 117.272 470.876 117.168 469.354 117.171C461.13 117.171 456.746 122.544 456.746 133.22V151.748H441.566V103.706Z" fill="#364153"/>
<path d="M524.268 131.912H489.153C489.427 138.214 493.608 141.589 500.354 141.589C505.016 141.589 507.997 140.28 509.264 137.319H524.133C522.659 146.755 513.033 153.057 500.354 153.057C484.083 153.057 474.078 143.793 474.078 127.744C474.078 111.696 484.357 102.432 499.841 102.432C514.709 102.432 524.849 111.696 524.849 125.23C524.804 127.468 524.609 129.7 524.268 131.912ZM509.707 122.441C509.827 121.08 509.636 119.709 509.152 118.433C508.668 117.156 507.903 116.006 506.913 115.068C505.927 114.131 504.738 113.43 503.444 113.019C502.147 112.608 500.774 112.497 499.432 112.694C498.104 112.593 496.773 112.772 495.521 113.218C494.264 113.664 493.117 114.369 492.149 115.286C491.186 116.204 490.417 117.314 489.899 118.545C489.386 119.777 489.131 121.104 489.153 122.441H509.707Z" fill="#364153"/>
<path fill-rule="evenodd" clip-rule="evenodd" d="M291.31 114.025C293.617 105.325 299.806 100.863 315.291 103.362C309.72 106.619 307.728 110.614 306.017 114.045C303.613 118.868 301.764 122.579 291.31 121.562V151.749H276.168V103.706H291.31V114.025Z" fill="#364153"/>
<path d="M210.972 151.577L195.727 130.913V151.577H180.824V86.6584H195.83V124.025L211.486 103.844H229.266L210.287 126.504L229.472 151.577H210.972Z" fill="#364153"/>
</g>
</svg>
